X:4
T:GB/7c/4 A Fair Maid Walking Down in the Garden 
%%VWML:GB-7c-4-0
F:http://www.vwml.org/record/GB/7c/4
P:F.W. J(ekyll) & G.S.K. B(utterworth)
C:Transcribed by Simon Furey and Lewis Jones T:Version 1 of 3
L:1/4
M:3/2
I:linebreak $
K:Ddor
D | F G A2 G3/2 E/ | F D E D z D | G F G2 A3/2 B/ | c B A3 G |$ A B/c/ d2 c A | c A G F z D | A B c2 E/F/ G | F E D3 |]

